packages/sources/assets/src/assets/flag-ec.svg

<svg width="28" height="20" viewBox="0 0 28 20" fill="none" xmlns="http://www.w3.org/2000/svg">
<rect width="28" height="20" rx="2" fill="white"/>
<mask id="mask0_503_2507" style="mask-type:alpha" maskUnits="userSpaceOnUse" x="0" y="0" width="28" height="20">
<rect width="28" height="20" rx="2" fill="white"/>
</mask>
<g mask="url(#mask0_503_2507)">
<path fill-rule="evenodd" clip-rule="evenodd" d="M0 14.6667H28V9.33333H0V14.6667Z" fill="#0748AE"/>
<path fill-rule="evenodd" clip-rule="evenodd" d="M0 20H28V14.6667H0V20Z" fill="#DE2035"/>
<path fill-rule="evenodd" clip-rule="evenodd" d="M0 9.33333H28V0H0V9.33333Z" fill="#FFD935"/>
<path fill-rule="evenodd" clip-rule="evenodd" d="M12.3999 8C11.7523 8.48651 11.3333 9.26108 11.3333 10.1335C11.3333 11.6062 12.5272 12.8002 14 12.8002C15.4728 12.8002 16.6667 11.6062 16.6667 10.1335C16.6667 9.26108 16.2477 8.48651 15.6 8L14.6667 10.8002H13.3333L12.3999 8Z" fill="#FFD935"/>
<path fill-rule="evenodd" clip-rule="evenodd" d="M14 7.33333L14.6667 10.6667H13.3333L14 7.33333Z" fill="#5FC0DC"/>
<path opacity="0.66" d="M17.3333 5.99999L15.3333 5.33333L14 6.66666L12.6667 5.33333L10.6667 5.99999" stroke="#3F2821" stroke-width="0.666667" stroke-linecap="round" stroke-linejoin="round"/>
</g>
</svg>

<svg width="28" height="20" fill="none" xmlns="http://www.w3.org/2000/svg"><rect width="28" height="20" rx="2" fill="#fff"/><mask id="a" style="mask-type:alpha" maskUnits="userSpaceOnUse" x="0" y="0" width="28" height="20"><rect width="28" height="20" rx="2" fill="#fff"/></mask><g mask="url(#a)"><path fill-rule="evenodd" clip-rule="evenodd" d="M0 14.667h28V9.333H0v5.334Z" fill="#0748AE"/><path fill-rule="evenodd" clip-rule="evenodd" d="M0 20h28v-5.333H0V20Z" fill="#DE2035"/><path fill-rule="evenodd" clip-rule="evenodd" d="M0 9.333h28V0H0v9.333Z" fill="#FFD935"/><path fill-rule="evenodd" clip-rule="evenodd" d="M12.4 8a2.667 2.667 0 1 0 3.2 0l-.933 2.8h-1.334L12.4 8Z" fill="#FFD935"/><path fill-rule="evenodd" clip-rule="evenodd" d="m14 7.333.667 3.334h-1.334L14 7.333Z" fill="#5FC0DC"/><path opacity=".66" d="m17.333 6-2-.667L14 6.667l-1.333-1.334-2 .667" stroke="#3F2821" stroke-width=".667" stroke-linecap="round" stroke-linejoin="round"/></g></svg>
